X: 7784
T: Come In From The Rain
R: slide
M: 12/8
K: Eminor
d|:B2E EDE d3 A2G|F2D DEDF2G ABc|
B2E EDE d3 e2g|1 g2e f2de3 e2d:|2 g2e f2d egf e2f||
|:gfe b2e gfe b2e|f2d A2g f2g a2f|
gfe b2e gfe b2e|1 f2d B^cd egf e2f:|2 f2d B^cd e3 e2d||

